ir/3d-select-face.svg

<svg stroke-width="1.5" viewBox="0 0 24 24" fill="none" xmlns="http://www.w3.org/2000/svg" height="1em" width="1em">
  <path d="M21 7.35304L21 16.647C21 16.8649 20.8819 17.0656 20.6914 17.1715L12.2914 21.8381C12.1102 21.9388 11.8898 21.9388 11.7086 21.8381L3.30861 17.1715C3.11814 17.0656 3 16.8649 3 16.647L2.99998 7.35304C2.99998 7.13514 3.11812 6.93437 3.3086 6.82855L11.7086 2.16188C11.8898 2.06121 12.1102 2.06121 12.2914 2.16188L20.6914 6.82855C20.8818 6.93437 21 7.13514 21 7.35304Z" stroke="currentColor" stroke-linecap="round" stroke-linejoin="round"/>
  <path d="M3.52844 7.29357L11.7086 11.8381C11.8898 11.9388 12.1102 11.9388 12.2914 11.8381L20.5 7.27777" stroke="currentColor" stroke-linecap="round" stroke-linejoin="round"/>
  <path d="M12 21L12 12" stroke="currentColor" stroke-linecap="round" stroke-linejoin="round"/>
  <path d="M11.6914 11.8285L3.89139 7.49521C3.49147 7.27304 3 7.56222 3 8.01971V16.647C3 16.8649 3.11813 17.0656 3.30861 17.1715L11.1086 21.5048C11.5085 21.727 12 21.4378 12 20.9803V12.353C12 12.1351 11.8819 11.9344 11.6914 11.8285Z" fill="currentColor" stroke="currentColor" stroke-linejoin="round"/>
</svg>

<svg stroke-width="1.5" viewBox="0 0 24 24" fill="none" xmlns="http://www.w3.org/2000/svg" height="1em" width="1em">
  <path d="M21 7.353v9.294a.6.6 0 0 1-.309.525l-8.4 4.666a.6.6 0 0 1-.582 0l-8.4-4.666A.6.6 0 0 1 3 16.647V7.353a.6.6 0 0 1 .309-.524l8.4-4.667a.6.6 0 0 1 .582 0l8.4 4.667a.6.6 0 0 1 .309.524Z" stroke="currentColor" stroke-linecap="round" stroke-linejoin="round"/>
  <path d="m3.528 7.294 8.18 4.544a.6.6 0 0 0 .583 0l8.209-4.56M12 21v-9" stroke="currentColor" stroke-linecap="round" stroke-linejoin="round"/>
  <path d="m11.691 11.829-7.8-4.334A.6.6 0 0 0 3 8.02v8.627a.6.6 0 0 0 .309.525l7.8 4.333A.6.6 0 0 0 12 20.98v-8.627a.6.6 0 0 0-.309-.524Z" fill="currentColor" stroke="currentColor" stroke-linejoin="round"/>
</svg>
